X:1
T:Waldhornklang
T:Friedrich Silcher
T:Christoph von Schmid
T:Waldhornklang
T:CPDL - Creative Commons Attribution Non Commercial 3.0
C:Friedrich Silcher
Z:Christoph von Schmid
Z:CPDL - Creative Commons Attribution Non Commercial 3.0
%%score [ ( 1 2 ) ( 3 4 ) ]
L:1/8
Q:1/4=60
M:6/8
K:G
V:1 treble nm="Sopran\nAlt"
V:2 treble 
V:3 bass nm="Tenor\nBass"
V:4 bass 
V:1
"^Gemütlich"!mf! D |!<(! GA!<)!B A2!mf! A |!<(! AB!<)!c !breath!B2!f! B | !>!d2 B dcB | %4
w: 1.~Wie|lieb- * lich schallt durch|Busch * und Wald des|Wald- horns sü- * ßer|
w: 2.~Und|je- * der Baum im|wei- * ten Raum dünkt|uns wohl noch * so|
w: 3.~Und|je- * de Brust fühlt|neu- * e Lust beim|fro- hen Zwil- * lings-|
 A3- !breath!A2!pp!"^Echo" B | d2 B dcB | A3- !breath!A2!mf! A |!<(! c2 c B2!<)! G | %8
w: Klang, _ des|Wald- horns sü- * ßer|Klang! _ Der|Wie- der- hall im|
w: grün, _ dünkt|uns wohl noch * so|grün; _ es|wallt der Quell' wohl|
w: ton, _ beim|fro- hen Zwil- * lings-|ton; _ es|flieht der Schmerz aus|
!f! !>!e2 e !breath!!^!d2!mf! c | B2 B A2 A | G3- !breath!!fermata!G2!pp!"^Echo" c | B2 B A2 A | %12
w: Ei- chen- tal hallt´s|nach, so lang, so|lang, _ hallt´s|nach, so lang, so|
w: noch so hell durch's|Tal da- hin, da-|hin, _ durch's|Tal da- hin, da-|
w: je- dem Herz so-|gleich da- von, da-|von, _ so-|gleich da- von, da-|
 G3- !fermata!G2 |] %13
w: lang! _|
w: hin! _|
w: von! _|
V:2
 D | GFG F2 F | FGF G2 G | G2 G BAG | F3- F2 G | G2 G BAG | F3- F2 F | F2 A G2 G | G2 G G2 A | %9
 G2 G F2 F | D3- D2 A | G2 G F2 F | D3- D2 |] %13
V:3
!mf! D, |!<(! D2!<)! D D2!mf! C |!<(! CB,!<)!A, !breath!B,2!f! B, | !>!B,2 D D2 D | %4
 D3- !breath!D2!pp!"^Echo" B, | B,2 D D2 D | D3- !breath!D2!mf! D |!<(! A,2 D D2!<)! D | %8
!f! !>!E2 C !breath!!^!B,2!mf! E | D2 D C2 C | B,3- !breath!!fermata!B,2!pp!"^Echo" E | D2 D C2 C | %12
 B,3- !fermata!B,2 |] %13
V:4
 D, | B,A,G, D,2 D, | D,2 D, G,2 G, | G,2 G, G,2 G, | D,3- D,2 G, | G,2 G, G,2 G, | D,3- D,2 D, | %7
 D,2 F, G,2 B, | C2 C G,2 C, | D,2 D, D,2 D, | G,3- G,2 C, | D,2 D, D,2 D, | G,3- G,2 |] %13

